incomeartour/img/icons/calendar-icon.svg

<svg width="16" height="18" viewBox="0 0 16 18" fill="none" xmlns="http://www.w3.org/2000/svg">
<path fill-rule="evenodd" clip-rule="evenodd" d="M2.8495 0.101628C2.53555 0.262493 2.40212 0.522578 2.40038 0.977128L2.39955 1.1936L1.71259 1.20723C1.11272 1.21915 1.00225 1.23036 0.841172 1.29563C0.481099 1.44152 0.180784 1.74859 0.0638785 2.09043C0.00509544 2.26233 0.0017563 2.6591 0.000678034 9.58479C-0.00057415 17.6599 -0.0169221 17.0763 0.220228 17.4256C0.376716 17.6561 0.632405 17.8463 0.898842 17.9303C1.11617 17.9988 1.23648 18 7.99959 18C14.7627 18 14.883 17.9988 15.1003 17.9303C15.3668 17.8463 15.6225 17.6561 15.779 17.4256C16.016 17.0764 15.9997 17.6578 15.9997 9.59998C15.9997 1.47118 16.0197 2.11233 15.755 1.75647C15.6053 1.55504 15.31 1.33327 15.1022 1.26614C15.0297 1.24269 14.674 1.21781 14.2866 1.20909L13.5996 1.1936L13.5988 0.977128C13.5984 0.858051 13.5837 0.698521 13.5663 0.62264C13.4307 0.0316508 12.6225 -0.206783 12.1656 0.209422C11.9606 0.396226 11.8969 0.561555 11.896 0.909998L11.8953 1.19996H7.99959H4.10391L4.10315 0.909998C4.10224 0.561555 4.03859 0.396226 3.83354 0.209422C3.57984 -0.0217367 3.17646 -0.0659159 2.8495 0.101628ZM3.49051 0.605031C3.57483 0.672021 3.58217 0.698767 3.58217 0.938924V1.19996H3.25173H2.92129V0.98732C2.92129 0.774649 2.98425 0.589918 3.06839 0.555686C3.18189 0.509538 3.4029 0.535371 3.49051 0.605031ZM12.9418 0.577231C13.0395 0.653006 13.0779 0.768674 13.0779 0.986758V1.19996H12.7475H12.417V0.938924C12.417 0.698767 12.4244 0.672021 12.5087 0.605031C12.6121 0.522789 12.8518 0.507429 12.9418 0.577231ZM2.40578 2.22799C2.4168 2.66086 2.42891 2.74865 2.49499 2.87479C2.62804 3.12883 2.91197 3.30875 3.1798 3.30875C3.31465 3.30875 3.39584 3.25469 3.43604 3.13815C3.49785 2.95897 3.3983 2.84172 3.11333 2.75807C2.95555 2.71175 2.92237 2.60473 2.92181 2.14013L2.92129 1.72715H7.40828H11.8953L11.896 2.21042C11.8967 2.60353 11.9087 2.7199 11.9606 2.83427C12.1371 3.22289 12.6376 3.44051 12.8534 3.22246C12.9003 3.17502 12.9388 3.09523 12.9388 3.04515C12.9388 2.93064 12.7948 2.78155 12.6842 2.78155C12.638 2.78155 12.5591 2.74876 12.5087 2.70869C12.4181 2.63671 12.417 2.63049 12.417 2.18149V1.72715H13.5842C14.3204 1.72715 14.8078 1.74149 14.904 1.76596C15.0956 1.8147 15.3287 2.01356 15.4123 2.19966C15.4708 2.32988 15.4765 2.4556 15.4771 3.65111L15.4779 4.96L9.87484 4.96911L4.27181 4.97821L4.18784 5.07683C4.08502 5.19763 4.08214 5.27467 4.17602 5.39522L4.24809 5.48783H9.86302H15.4779V8.98667C15.4779 12.7955 15.4895 12.5732 15.281 12.7672C15.1098 12.9264 15.0126 12.9389 13.9436 12.9389C13.0042 12.9389 12.9289 12.9436 12.7421 13.0142C12.5037 13.1044 12.2618 13.3346 12.1381 13.5891C12.0542 13.7618 12.0524 13.7842 12.0349 14.8895C12.0224 15.6763 12.0044 16.0365 11.9749 16.0885C11.9026 16.2158 11.6932 16.3789 11.5743 16.4004C11.5117 16.4118 9.12047 16.4165 6.26045 16.411L1.06041 16.4008L0.894981 16.3026C0.780232 16.2344 0.697762 16.1483 0.625761 16.0214L0.521934 15.8385L0.521586 10.6632L0.521273 5.48783H1.98215C3.39667 5.48783 3.44523 5.48562 3.5126 5.41754C3.6005 5.32873 3.60189 5.16877 3.5157 5.06119L3.44923 4.97821L1.98525 4.96798L0.521273 4.95772L0.522039 3.64999C0.522734 2.45557 0.528369 2.32985 0.586874 2.19966C0.665796 2.02407 0.901729 1.81456 1.07216 1.7687C1.14222 1.74982 1.46806 1.73278 1.79627 1.73077L2.39301 1.72715L2.40578 2.22799ZM1.96476 6.5733C1.79735 6.61664 1.70483 6.67958 1.63259 6.79929C1.57095 6.90143 1.56504 6.98079 1.56511 7.70207C1.56521 8.57268 1.57384 8.61222 1.79575 8.76005C1.88574 8.82001 1.96963 8.8263 2.67781 8.8264C3.4015 8.82647 3.46909 8.82117 3.57549 8.75562C3.79006 8.6234 3.82401 8.47982 3.82488 7.70073C3.82561 7.05741 3.82071 7.00416 3.74739 6.85802C3.61017 6.58444 3.53285 6.56086 2.74738 6.55306C2.37433 6.54936 2.02215 6.55847 1.96476 6.5733ZM5.51262 6.5733C5.34521 6.61664 5.25268 6.67958 5.18044 6.79929C5.11888 6.90132 5.11286 6.98096 5.11275 7.69504C5.11261 8.564 5.12649 8.63144 5.33171 8.75787C5.43342 8.82057 5.51067 8.82651 6.22567 8.82651C7.37521 8.82651 7.35611 8.84549 7.35611 7.70207C7.35611 7.00536 7.35058 6.93693 7.28533 6.82463C7.14592 6.58486 7.0576 6.56065 6.29523 6.55306C5.92219 6.54936 5.57001 6.55847 5.51262 6.5733ZM9.05264 6.57481C8.89163 6.61569 8.77536 6.7018 8.70468 6.83251C8.65115 6.93151 8.64308 7.04532 8.64308 7.70207C8.64308 8.84549 8.62398 8.82651 9.77352 8.82651C10.9196 8.82651 10.8866 8.86004 10.8864 7.69504C10.8863 6.55538 10.8949 6.56479 9.84309 6.55355C9.47004 6.54958 9.11435 6.55914 9.05264 6.57481ZM12.6005 6.57481C12.4395 6.61569 12.3232 6.7018 12.2525 6.83251C12.199 6.93151 12.1909 7.04532 12.1909 7.70207C12.1909 8.84552 12.1719 8.82654 13.3214 8.8264C14.0296 8.8263 14.1135 8.82001 14.2034 8.76005C14.4253 8.61222 14.434 8.57268 14.4341 7.70207C14.4342 6.55432 14.4437 6.56479 13.3909 6.55355C13.0179 6.54958 12.6622 6.55914 12.6005 6.57481ZM3.29604 7.69328L3.30554 8.29956H2.69604H2.0865V7.68365V7.06778L2.68651 7.07737L3.28651 7.087L3.29604 7.69328ZM6.8439 7.69328L6.85339 8.29956H6.24389H5.63436V7.68365V7.06778L6.23436 7.07737L6.83437 7.087L6.8439 7.69328ZM10.3648 7.68449V8.29956H9.75613H9.14743V7.70794C9.14743 7.38251 9.15786 7.10573 9.17063 7.09287C9.18336 7.07997 9.45727 7.06943 9.77933 7.06943H10.3648V7.68449ZM13.9127 7.68449V8.29956H13.304H12.6953V7.70794C12.6953 7.38251 12.7057 7.10573 12.7185 7.09287C12.7312 7.07997 13.0051 7.06943 13.3272 7.06943H13.9127V7.68449ZM1.92998 9.83567C1.81554 9.86618 1.67154 9.98533 1.6146 10.0966C1.57012 10.1836 1.56292 10.3357 1.57165 11.0049C1.58212 11.8071 1.58233 11.8089 1.66911 11.9027C1.83902 12.0862 1.88713 12.0954 2.68533 12.0954C3.51789 12.0954 3.6046 12.0748 3.73869 11.8454C3.80262 11.736 3.80826 11.6632 3.80826 10.9469C3.80826 10.2145 3.80394 10.1616 3.73653 10.0704C3.56102 9.83286 3.54533 9.82899 2.73625 9.82277C2.33106 9.81964 1.96824 9.82544 1.92998 9.83567ZM5.44803 9.84604C5.39335 9.86312 5.31738 9.90565 5.27922 9.94055C5.12423 10.0823 5.11261 10.1542 5.11261 10.9723C5.11261 11.8174 5.12096 11.86 5.31554 12.0075C5.40065 12.072 5.47171 12.0787 6.18174 12.0885C7.05732 12.1005 7.13621 12.0837 7.27729 11.8544C7.35281 11.7317 7.35611 11.6948 7.35611 10.9707C7.35611 10.2782 7.3503 10.2051 7.28654 10.0957C7.24828 10.0301 7.17284 9.94308 7.11889 9.90242C7.02713 9.83321 6.97305 9.82801 6.2841 9.82168C5.87892 9.81799 5.50267 9.82896 5.44803 9.84604ZM8.95317 9.85954C8.8148 9.92206 8.7053 10.0644 8.65748 10.2438C8.63407 10.3317 8.62402 10.6433 8.63129 11.0564C8.64228 11.6802 8.6485 11.7352 8.72189 11.8544C8.85859 12.0765 8.94075 12.0954 9.77352 12.0954C10.5974 12.0954 10.6896 12.0753 10.8165 11.8678C10.8813 11.7618 10.8866 11.694 10.8864 10.9665C10.8863 10.2488 10.8804 10.1701 10.8185 10.0676C10.681 9.83964 10.6391 9.82934 9.80994 9.81975C9.23289 9.81304 9.03578 9.82221 8.95317 9.85954ZM12.6005 9.91373C12.4395 9.95461 12.3232 10.0407 12.2525 10.1714C12.199 10.2704 12.1909 10.3842 12.1909 11.041C12.1909 12.1844 12.1719 12.1655 13.3214 12.1653C14.183 12.1652 14.2221 12.1565 14.3684 11.9323C14.4277 11.8413 14.434 11.7566 14.4341 11.041C14.4342 9.89324 14.4437 9.90371 13.3909 9.89247C13.0179 9.8885 12.6622 9.89806 12.6005 9.91373ZM3.29604 10.9619L3.30554 11.5682H2.69604H2.0865V10.9523V10.3364L2.68651 10.346L3.28651 10.3556L3.29604 10.9619ZM6.8439 10.9619L6.85339 11.5682H6.24389H5.63436V10.9523V10.3364L6.23436 10.346L6.83437 10.3556L6.8439 10.9619ZM10.3648 10.9531V11.5682H9.75613H9.14743V10.9766C9.14743 10.6511 9.15786 10.3744 9.17063 10.3615C9.18336 10.3486 9.45727 10.3381 9.77933 10.3381H10.3648V10.9531ZM13.9127 11.0234V11.6385H13.304H12.6953V11.0469C12.6953 10.7214 12.7057 10.4447 12.7185 10.4318C12.7312 10.4189 13.0051 10.4083 13.3272 10.4083H13.9127V11.0234ZM1.84372 13.1411C1.77714 13.1748 1.68713 13.2562 1.64372 13.3219C1.56754 13.4371 1.56476 13.4689 1.56476 14.2217C1.56476 14.9746 1.56754 15.0064 1.64372 15.1216C1.79106 15.3444 1.87575 15.3639 2.69875 15.3639C3.40272 15.364 3.43744 15.3608 3.54773 15.2849C3.80565 15.1076 3.80826 15.0969 3.80826 14.2217C3.80826 13.3466 3.80565 13.3359 3.54773 13.1586C3.43744 13.0827 3.40272 13.0795 2.69875 13.0796C2.06939 13.0796 1.94751 13.0883 1.84372 13.1411ZM5.40827 13.1291C5.35088 13.1549 5.26479 13.2188 5.21696 13.2711L5.13001 13.3663V14.2223V15.0782L5.23289 15.1868C5.38917 15.3515 5.50566 15.3702 6.30149 15.3577C7.08981 15.3453 7.1103 15.3401 7.28439 15.1045C7.35183 15.0132 7.35611 14.9604 7.35611 14.2217C7.35611 13.3466 7.3535 13.3359 7.09559 13.1586C6.98515 13.0826 6.95169 13.0796 6.24661 13.0809C5.71283 13.0819 5.48416 13.095 5.40827 13.1291ZM8.9036 13.1586C8.68391 13.3096 8.64328 13.4013 8.64318 13.746C8.64304 14.1156 8.69344 14.2042 8.90395 14.2042C9.09397 14.2042 9.14743 14.1245 9.14743 13.8411V13.6067H9.75613H10.3648V14.2217V14.8368H9.76375H9.16266L9.12388 14.733C9.05223 14.5411 8.76082 14.5439 8.68036 14.7372C8.62311 14.8748 8.66057 15.058 8.77059 15.1786C8.9229 15.3456 9.02231 15.364 9.77352 15.364C10.5299 15.364 10.6235 15.3462 10.7822 15.1724L10.8692 15.0772V14.2217V13.3663L10.7822 13.2711C10.6225 13.0962 10.5321 13.0795 9.745 13.0795C9.04892 13.0795 9.01379 13.0828 8.9036 13.1586ZM15.1301 13.4399C15.1301 13.4448 14.5471 14.0379 13.8344 14.7578L12.5388 16.0667L12.5562 14.9685C12.5811 13.3955 12.4894 13.4921 13.9822 13.4651C14.5466 13.4549 15.0358 13.443 15.0692 13.4387C15.1027 13.4344 15.1301 13.435 15.1301 13.4399ZM3.3039 14.2217V14.8368H2.6952H2.0865V14.2217V13.6067H2.6952H3.3039V14.2217ZM6.85176 14.2217V14.8368H6.24306H5.63436V14.2217V13.6067H6.24306H6.85176V14.2217ZM15.379 17.0652C15.3118 17.1859 15.2246 17.2788 15.1117 17.3498L14.9442 17.4552L8.03288 17.4643L1.12149 17.4733L0.934424 17.3749C0.790006 17.2989 0.721588 17.2331 0.634318 17.0862C0.572161 16.9816 0.521273 16.8505 0.521273 16.7949V16.6938L0.634318 16.7639C0.943398 16.9554 0.666249 16.9475 6.6632 16.9373L12.1924 16.928L12.4177 16.8152C12.6155 16.7162 12.816 16.5274 14.0518 15.2773L15.4605 13.8524L15.4696 15.3692L15.4786 16.886L15.379 17.0652Z" fill="#0093DD"/>
</svg>

<svg width="16" height="18" fill="none" xmlns="http://www.w3.org/2000/svg"><path fill-rule="evenodd" clip-rule="evenodd" d="M2.85.102c-.314.16-.448.42-.45.875v.217l-.687.013c-.6.012-.71.023-.872.089-.36.146-.66.453-.777.794-.059.172-.062.57-.063 7.495-.002 8.075-.018 7.491.22 7.84.156.231.411.421.678.505.217.069.337.07 7.1.07 6.764 0 6.884-.001 7.101-.07.267-.084.523-.274.679-.504.237-.35.22.232.22-7.826 0-8.129.02-7.488-.244-7.844-.15-.201-.445-.423-.653-.49-.072-.023-.428-.048-.815-.057l-.687-.015-.001-.217c0-.119-.015-.278-.033-.354-.135-.591-.944-.83-1.4-.414-.205.187-.27.353-.27.701v.29H4.103V.91c-.002-.348-.065-.514-.27-.7-.254-.232-.658-.276-.985-.108zm.64.503c.085.067.092.094.092.334V1.2h-.66V.987c0-.212.062-.397.146-.431.114-.046.335-.02.423.049zm9.452-.028c.098.076.136.192.136.41V1.2h-.661V.939c0-.24.007-.267.092-.334.103-.082.343-.098.433-.028zM2.406 2.228c.01.433.023.52.089.647.133.254.417.434.685.434.135 0 .216-.054.256-.17.062-.18-.038-.297-.323-.38-.157-.047-.19-.154-.191-.619v-.413h8.972l.001.483c0 .394.013.51.065.624.176.389.677.607.892.388a.304.304 0 00.086-.177c0-.114-.144-.263-.255-.263a.345.345 0 01-.175-.073c-.09-.072-.092-.079-.092-.528v-.454h1.167c.736 0 1.224.014 1.32.039a.885.885 0 01.508.434c.059.13.064.256.065 1.451V4.96l-5.602.01-5.603.008-.084.099c-.103.12-.106.198-.012.318l.072.093h11.23v3.499c0 3.809.011 3.586-.197 3.78-.171.16-.268.172-1.337.172-.94 0-1.015.005-1.202.075-.238.09-.48.32-.604.575-.084.173-.086.195-.103 1.3-.013.787-.03 1.148-.06 1.2-.072.127-.282.29-.4.311-.063.012-2.455.017-5.315.011l-5.2-.01-.165-.098a.72.72 0 01-.27-.282l-.103-.183V5.489h1.46c1.415 0 1.463-.002 1.53-.07.088-.09.09-.25.004-.357l-.067-.083-1.464-.01-1.464-.01.001-1.308c0-1.194.006-1.32.065-1.45.079-.176.315-.385.485-.431.07-.02.396-.036.724-.038l.597-.004.013.501zm-.441 4.345c-.168.044-.26.107-.332.226-.062.102-.068.182-.068.903 0 .87.009.91.23 1.058.09.06.175.066.883.066.724 0 .791-.005.897-.07.215-.133.249-.276.25-1.055 0-.644-.004-.697-.078-.843-.137-.274-.214-.297-1-.305-.373-.004-.725.005-.782.02zm3.548 0c-.168.044-.26.107-.333.226-.061.102-.067.182-.067.896 0 .869.013.936.219 1.063.101.063.179.069.894.069 1.15 0 1.13.018 1.13-1.125 0-.697-.005-.765-.07-.877-.14-.24-.228-.264-.99-.272-.374-.004-.726.005-.783.02zm3.54.002a.52.52 0 00-.348.258c-.054.099-.062.212-.062.87 0 1.142-.019 1.124 1.13 1.124 1.147 0 1.114.033 1.113-1.132 0-1.14.009-1.13-1.043-1.141-.373-.004-.729.005-.79.02zm3.547 0a.52.52 0 00-.348.258c-.053.099-.061.212-.061.87 0 1.143-.02 1.124 1.13 1.123.709 0 .793-.006.882-.066.222-.148.231-.187.231-1.058 0-1.148.01-1.137-1.043-1.148-.373-.004-.729.005-.79.02zM3.296 7.693l.01.607h-1.22V7.068l.6.01.6.009.01.606zm3.548 0l.01.607h-1.22V7.068l.6.01.6.009.01.606zm3.52-.009V8.3H9.148v-.592c0-.325.01-.602.024-.615.012-.013.286-.024.608-.024h.586v.615zm3.549 0V8.3h-1.218v-.592c0-.325.01-.602.024-.615.012-.013.286-.024.608-.024h.586v.615zM1.93 9.836a.583.583 0 00-.315.26c-.045.088-.052.24-.043.909.01.802.01.804.097.898.17.183.218.192 1.016.192.833 0 .92-.02 1.054-.25.064-.109.07-.182.07-.898 0-.732-.005-.785-.072-.877-.176-.237-.192-.241-1-.247a9.966 9.966 0 00-.807.013zm3.518.01a.532.532 0 00-.169.095c-.155.141-.166.213-.166 1.031 0 .845.008.888.203 1.036.085.064.156.07.866.08.875.013.954-.004 1.095-.234.076-.122.08-.16.08-.883 0-.693-.007-.766-.07-.875a.779.779 0 00-.168-.194c-.092-.069-.146-.074-.835-.08-.405-.004-.781.007-.836.024zm3.505.014a.573.573 0 00-.296.384c-.023.088-.033.4-.026.812.011.624.018.68.09.798.138.223.22.241 1.053.241.823 0 .916-.02 1.043-.227.064-.106.07-.174.07-.902 0-.717-.007-.796-.069-.898-.137-.228-.179-.239-1.008-.248-.577-.007-.774.002-.857.04zm3.648.054a.52.52 0 00-.349.257c-.053.1-.061.213-.061.87 0 1.143-.02 1.124 1.13 1.124.862 0 .901-.008 1.047-.233.06-.09.066-.175.066-.891 0-1.148.01-1.137-1.043-1.149-.373-.003-.729.006-.79.022zm-9.305 1.048l.01.606h-1.22v-1.232l.6.01.6.01.01.606zm3.548 0l.01.606h-1.22v-1.232l.6.01.6.01.01.606zm3.52-.009v.615H9.148v-.591c0-.326.01-.603.024-.616.012-.012.286-.023.608-.023h.586v.615zm3.549.07v.616h-1.218v-.592c0-.326.01-.602.024-.615.012-.013.286-.024.608-.024h.586v.615zm-12.07 2.118a.624.624 0 00-.2.18c-.075.116-.078.148-.078.9 0 .754.003.785.079.9.147.223.232.243 1.055.243.704 0 .738-.003.849-.08.258-.176.26-.187.26-1.062s-.002-.886-.26-1.063c-.11-.076-.145-.08-.85-.08-.629 0-.75.01-.854.062zm3.565-.012a.706.706 0 00-.191.142l-.087.095v1.712l.103.109c.156.165.273.183 1.068.17.789-.012.81-.017.983-.252.068-.092.072-.145.072-.883 0-.875-.002-.886-.26-1.063-.11-.076-.144-.08-.85-.078-.533 0-.762.014-.838.048zm3.496.03c-.22.15-.26.242-.26.587-.001.37.05.458.26.458.19 0 .243-.08.243-.363v-.234h1.218v1.23H9.163l-.04-.104c-.07-.192-.362-.19-.443.004a.436.436 0 00.09.442c.153.167.252.185 1.004.185.756 0 .85-.018 1.008-.192l.087-.095v-1.711l-.087-.095c-.16-.175-.25-.192-1.037-.192-.696 0-.731.004-.841.08zm6.226.28c0 .006-.583.599-1.296 1.319l-1.295 1.309.017-1.098c.025-1.573-.067-1.477 1.426-1.504a50.725 50.725 0 001.148-.026zm-11.826.783v.615H2.087v-1.23h1.217v.615zm3.548 0v.615H5.634v-1.23h1.218v.615zm8.527 2.843a.767.767 0 01-.267.285l-.168.105-6.911.01-6.912.008-.187-.098a.654.654 0 01-.3-.289.795.795 0 01-.113-.291v-.101l.113.07c.31.191.032.184 6.03.173l5.528-.009.226-.113c.198-.099.398-.288 1.634-1.538l1.409-1.425.009 1.517.009 1.517-.1.18z" fill="#0093DD"/></svg>
